theme-map4trip/src/main/assets/themes/mapsforgeV3/map4trip/symbols/petrolStation.svg

<svg enable-background="new 0 0 18.641 18.641" height="18.641" viewBox="0 0 18.641 18.641" width="18.641" xmlns="http://www.w3.org/2000/svg"><path d="m13.71 7.31c-.699.38-2.63.38-3.319 0-.41-.23-.41-1.62 0-1.84.689-.39 2.62-.39 3.319 0 .41.22.41 1.61 0 1.84z" fill="#fff"/><path d="m8.39 5.71.04-1.62c.47-.58 1.15-.15 1.3-1.13.04-.22-4.24-.46-4.43.19-1.46 3.62-4.61 14.021-1.62 14.11 3.63.12 1.4-2.521 2.49-10.57.35-1.36 1.71-.34 2.22-.98zm5.32 1.6c.41-.23.41-1.62 0-1.84-.699-.39-2.63-.39-3.319 0-.41.22-.41 1.61 0 1.84.689.38 2.619.38 3.319 0zm2.11-3.27v14.53l-7.55.07-.02-10.56c0-.45-1.47-.35-1.33-.07-.51 8.6.94 10.06-3.2 10.09-5.59.05.9-15.51 1.01-16.82h9.1c1.12 0 .4 1.61.851 2.09.539.47.889.29 1.139.67z"/></svg>

<?xml version="1.0" encoding="utf-8"?>
<!-- Generator: Adobe Illustrator 14.0.0, SVG Export Plug-In . SVG Version: 6.00 Build 43363)  -->
<!DOCTYPE svg PUBLIC "-//W3C//DTD SVG 1.1//EN" "http://www.w3.org/Graphics/SVG/1.1/DTD/svg11.dtd">
<svg version="1.1"
	 id="petrolStation" xmlns:xs="http://www.w3.org/2001/XMLSchema" xmlns:inkscape="http://www.inkscape.org/namespaces/inkscape" xmlns:rdf="http://www.w3.org/1999/02/22-rdf-syntax-ns#" xmlns:svg="http://www.w3.org/2000/svg" xmlns:xi="http://www.w3.org/2001/XInclude" xmlns:cc="http://web.resource.org/cc/" xmlns:dc="http://purl.org/dc/elements/1.1/"
	 xmlns="http://www.w3.org/2000/svg" xmlns:xlink="http://www.w3.org/1999/xlink" x="0px" y="0px" width="18.641px"
	 height="18.641px" viewBox="0 0 18.641 18.641" enable-background="new 0 0 18.641 18.641" xml:space="preserve">
<g id="XMLID_1_">
	<g>
		<path fill="#FFFFFF" d="M13.71,7.31c-0.699,0.38-2.63,0.38-3.319,0c-0.41-0.23-0.41-1.62,0-1.84c0.689-0.39,2.62-0.39,3.319,0
			C14.12,5.69,14.12,7.08,13.71,7.31z"/>
		<path d="M8.39,5.71l0.04-1.62c0.47-0.58,1.15-0.15,1.3-1.13C9.77,2.74,5.49,2.5,5.3,3.15C3.84,6.77,0.69,17.171,3.68,17.26
			c3.63,0.12,1.4-2.521,2.49-10.57C6.52,5.33,7.88,6.35,8.39,5.71z M13.71,7.31c0.41-0.23,0.41-1.62,0-1.84
			c-0.699-0.39-2.63-0.39-3.319,0c-0.41,0.22-0.41,1.61,0,1.84C11.08,7.69,13.01,7.69,13.71,7.31z M15.82,4.04v14.53l-7.55,0.07
			L8.25,8.08c0-0.45-1.47-0.35-1.33-0.07c-0.51,8.6,0.94,10.06-3.2,10.09c-5.59,0.05,0.9-15.51,1.01-16.82h9.1
			c1.12,0,0.4,1.61,0.851,2.09C15.22,3.84,15.57,3.66,15.82,4.04z"/>
	</g>
	<g>
	</g>
</g>
</svg>
